icons/beaker-24.svg

<svg width="24" height="24" viewBox="0 0 24 24" fill="none" xmlns="http://www.w3.org/2000/svg">
<path fill-rule="evenodd" clip-rule="evenodd" d="M8 8.80704V3.5H7.4375C7.02329 3.5 6.6875 3.16421 6.6875 2.75C6.6875 2.33579 7.02329 2 7.4375 2H16.5625C16.9767 2 17.3125 2.33579 17.3125 2.75C17.3125 3.16421 16.9767 3.5 16.5625 3.5H16V8.80704L21.1251 18.1082C22.0891 19.8576 20.8235 22 18.826 22H5.17397C3.17648 22 1.9109 19.8576 2.8749 18.1082L8 8.80704ZM14.5 3.5H9.5V9C9.5 9.12658 9.46797 9.25109 9.40688 9.36195L7.12673 13.5H16.8733L14.5931 9.36195C14.532 9.25109 14.5 9.12658 14.5 9V3.5ZM4.18866 18.8321L6.3002 15H17.6998L19.8114 18.8321C20.2245 19.5818 19.6821 20.5 18.826 20.5H5.17397C4.31791 20.5 3.77551 19.5818 4.18866 18.8321Z" fill="#24292E"/>
</svg>

<svg xmlns="http://www.w3.org/2000/svg" width="24" height="24" viewBox="0 0 24 24"><path fill-rule="evenodd" d="M8 8.807V3.5h-.563a.75.75 0 010-1.5h9.125a.75.75 0 010 1.5H16v5.307l5.125 9.301c.964 1.75-.302 3.892-2.299 3.892H5.174c-1.998 0-3.263-2.142-2.3-3.892L8 8.807zM14.5 3.5h-5V9a.75.75 0 01-.093.362L7.127 13.5h9.746l-2.28-4.138A.75.75 0 0114.5 9V3.5zM4.189 18.832L6.3 15h11.4l2.111 3.832a1.125 1.125 0 01-.985 1.668H5.174a1.125 1.125 0 01-.985-1.668z"/></svg>
